packages/calcite-ui-icons/icons/catalog-16.svg

<?xml version="1.0" encoding="UTF-8"?><svg id="icons" xmlns="http://www.w3.org/2000/svg" viewBox="0 0 16 16"><defs><style>.cls-1{fill:none;}</style></defs><rect class="cls-1" width="16" height="16"/><path d="M13,2H3L0,8v7h16v-7l-3-6ZM15,14H1v-5h3.38184l1,2h5.23633l1-2h3.38184v5ZM11,6h-6v-1h6v1ZM12,7v1h-1l-1,2h-4l-1-2h-1v-1h8ZM13,8v-2h-1v-2H4v2h-1v2H1L3.65918,3h8.68164l2.65918,5h-2Z"/></svg>

<svg xmlns="http://www.w3.org/2000/svg" viewBox="0 0 16 16"><path d="M0 0h16v16H0z" style="fill:none"/><path d="M13 2H3L0 8v7h16V8zm2 12H1V9h3.382l1 2h5.236l1-2H15zm-4-8H5V5h6zm1 1v1h-1l-1 2H6L5 8H4V7zm1 1V6h-1V4H4v2H3v2H1l2.66-5h8.68L15 8z"/></svg>
